templates/business-template/img/measure.svg

<!-- Generated by IcoMoon.io -->
<svg version="1.1" xmlns="http://www.w3.org/2000/svg" width="24" height="24" viewBox="0 0 24 24">
<title>measure</title>
<path fill="#fe504f" d="M3 14h1v-1h-1v1zM4 4h-1v1h1v-1zM4 22h-1v1h-2v1h5v-1h-2v-1zM3 8h1v-1h-1v1zM3 11h1v-1h-1v1zM9 0v24h13v-24h-13zM17 22h-6v-20h6v20zM20 22h-2v-2h2v2zM20 19h-2v-2h2v2zM20 16h-2v-2h2v2zM20 13h-2v-2h2v2zM20 10h-2v-2h2v2zM20 7h-2v-2h2v2zM20 4h-2v-2h2v2zM1 1h2v1h1v-1h2v-1h-5v1zM3 20h1v-1h-1v1zM3 17h1v-1h-1v1z"></path>
</svg>

<svg xmlns="http://www.w3.org/2000/svg" width="24" height="24"><path fill="#fe504f" d="M3 14h1v-1H3v1zM4 4H3v1h1V4zm0 18H3v1H1v1h5v-1H4v-1zM3 8h1V7H3v1zm0 3h1v-1H3v1zM9 0v24h13V0H9zm8 22h-6V2h6v20zm3 0h-2v-2h2v2zm0-3h-2v-2h2v2zm0-3h-2v-2h2v2zm0-3h-2v-2h2v2zm0-3h-2V8h2v2zm0-3h-2V5h2v2zm0-3h-2V2h2v2zM1 1h2v1h1V1h2V0H1v1zm2 19h1v-1H3v1zm0-3h1v-1H3v1z"/></svg>
